symbols/web/font_download_off/materialsymbolsoutlined/font_download_off_wght100grad200_24px.svg

<svg xmlns="http://www.w3.org/2000/svg" height="24" width="24"><path d="m21.425 22.925-1.5-1.5q-.1.05-.2.063-.1.012-.225.012H4.7q-.925 0-1.55-.625t-.625-1.55v-14.8q0-.125.013-.225.012-.1.062-.2l-.925-.925.95-.95 19.75 19.75ZM4.675 20.15H18.65L3.875 5.375V19.35q0 .3.25.55.25.25.55.25Zm16.85-1.825-1.35-1.35V4.65q0-.3-.25-.55-.25-.25-.55-.25H7.05L5.7 2.5h13.65q.925 0 1.55.625t.625 1.55Zm-6.85-6.85-2.1-2.125-.525-1.45h-.1l-.2.625-.975-.95.575-1.725h1.3Zm-3.425 1.3Zm2.35-2.35Zm1.95 7.425-1.375-4.075L16.2 15.8l.75 2.05Zm-8.5 0L10 9.6l.975.975L9.95 13.5h3.95l1.25 1.25H9.5l-1.05 3.1Z"/></svg>

<svg xmlns="http://www.w3.org/2000/svg" height="24" width="24"><path d="M21.425 22.925 19.925 21.425Q19.825 21.475 19.725 21.488Q19.625 21.5 19.5 21.5H4.7Q3.775 21.5 3.15 20.875Q2.525 20.25 2.525 19.325V4.525Q2.525 4.4 2.538 4.3Q2.55 4.2 2.6 4.1L1.675 3.175L2.625 2.225L22.375 21.975ZM4.675 20.15H18.65L15.65 17.15H14.9L14.5 16L13.25 14.75H9.5L8.55 17.55H7.15L9.525 11.025L3.875 5.375V19.35Q3.875 19.65 4.125 19.9Q4.375 20.15 4.675 20.15ZM21.525 18.325 20.175 16.975V4.65Q20.175 4.35 19.925 4.1Q19.675 3.85 19.375 3.85H7.05L5.7 2.5H19.35Q20.275 2.5 20.9 3.125Q21.525 3.75 21.525 4.675ZM9.925 13.5H12.875L10.7 11.325ZM14.675 11.475 12.4 9.175 12.05 8.2 11.9 8.675 10.775 7.575 11.35 5.85H12.65ZM11.25 12.775Q11.25 12.775 11.25 12.775Q11.25 12.775 11.25 12.775ZM13.6 10.425Q13.6 10.425 13.6 10.425Q13.6 10.425 13.6 10.425Z"/></svg>
